icon/CC0/document/individual/OCAL/scalable/blank_parchment_03.svg

<svg xmlns="http://www.w3.org/2000/svg" xml:space="preserve" width="8.85692in" height="12.0732in" shape-rendering="geometricPrecision" text-rendering="geometricPrecision" image-rendering="optimizeQuality" fill-rule="evenodd" clip-rule="evenodd"
viewBox="0 0 0.32198 0.438904"
 xmlns:xlink="http://www.w3.org/1999/xlink">
 <g id="Layer_x0020_1">
  <metadata id="CorelCorpID_0Corel-Layer"/>
  <path fill="#D1D2BE" d="M0.288917 0.00616779c-0.00874316,0 -0.014632,0.012699 -0.0184756,0.0273426l0.0184756 0 0 1.18793e-005c0.00163949,-2.86248e-007 0.00297526,0.00132218 0.002988,0.00296439 1.30243e-005,0.00165022 -0.00131431,0.00299874 -0.00296453,0.00301162 -7.87182e-006,0 -1.56005e-005,7.1562e-007 -2.34723e-005,8.58744e-007l0 1.07343e-005 -0.000209534 0c-0.00403123,0.000324748 -0.00678523,0.00784978 -0.00819099,0.0179971 -0.000718912,0.00518982 -0.00101776,0.0109899 -0.000904258,0.0169065 0.000113354,0.00591961 0.000641196,0.0119752 0.00157508,0.0176721 0.00236269,0.0144142 0.00707906,0.0262495 0.0138112,0.0262495 0.00710225,0 0.0118085,-0.0118696 0.0140568,-0.0277409 0.0010209,-0.00720744 0.00148391,-0.0151703 0.00139675,-0.0232522 -8.68763e-005,-0.00805617 -0.000727786,-0.0162869 -0.00191471,-0.0240584 -0.00311781,-0.0204118 -0.00976979,-0.0371041 -0.0196203,-0.0371041l0 -1.17362e-005z"/>
  <path fill="#D1D2BE" d="M0.26417 0.0742034c-0.000803498,0.0143658 8.97388e-005,0.0291886 0.00215946,0.0443136l0.0182711 0c-0.00449825,-0.0056919 -0.00760461,-0.0150116 -0.00931909,-0.0254706 -0.000974389,-0.00594423 -0.00152585,-0.0122976 -0.00164535,-0.0185393 -0.000119652,-0.0062445 0.000194506,-0.0123585 0.000951202,-0.0178204 0.000969236,-0.00699648 0.00272837,-0.0130246 0.00531377,-0.0171769l-0.0109043 0c-0.0011085,0.00501879 -0.0020003,0.0100931 -0.00270376,0.0148185 -0.000637761,0.00428284 -0.00110907,0.00819385 -0.00144641,0.0115239 -0.000341351,0.003371 -0.00055847,0.00624393 -0.000676118,0.00834356l-4.29372e-007 7.58558e-006z"/>
  <path fill="#D1D2BE" d="M0.288895 0.320749l-0.000355377 0 -5.72496e-007 0 -0.000300417 0c-0.00353516,0.00026206 -0.00700578,0.0051184 -0.00978768,0.0128395 -0.00319267,0.00886153 -0.00516764,0.0211603 -0.00516792,0.0347957l1.17362e-005 0 0 3.00561e-006 0 1.43124e-006 -1.17362e-005 0c1.43124e-007,0.0111588 0.000988129,0.0216561 0.00273267,0.0308515l0.0190239 -3.89297e-005c0.00396854,-9.44619e-006 0.00669062,-0.00743902 0.00807935,-0.0175743 0.00068814,-0.00502308 0.000981115,-0.0106383 0.000885222,-0.0163856 -9.61794e-005,-0.00577176 -0.000582229,-0.0116762 -0.00145156,-0.0172517 -0.00227667,-0.0146032 -0.00693307,-0.0268239 -0.0136576,-0.0272407z"/>
  <path fill="#F1F2E5" d="M0.0666149 0.314749l0.221924 0 5.72496e-007 0 0.000377704 0 0 1.98942e-005c0.0103207,0.000347076 0.0168272,0.0148986 0.0195412,0.0323062 0.000911557,0.00584676 0.00142122,0.0120317 0.00152184,0.0180721 0.000101189,0.0060646 -0.000207387,0.0119849 -0.000932167,0.0172759 -0.00179735,0.0131175 -0.00638748,0.0227355 -0.0140086,0.0227537l-0.0177408 3.62104e-005c0.000861464,0.00356794 0.00184473,0.00688627 0.00293361,0.00990834 0.0039611,0.0109938 0.00907006,0.017794 0.014388,0.0177945l0 -1.17362e-005 7.1562e-007 0 4.29372e-007 0 0 1.17362e-005c0.00531792,-2.86248e-007 0.0104272,-0.00680068 0.0143884,-0.017795 0.00429329,-0.0119161 0.00694896,-0.0284347 0.0069491,-0.0467313l-1.17362e-005 0 0 -2.86248e-006c0,-0.00010491 5.58184e-006,-0.000208532 1.60299e-005,-0.000310579 0.00090483,-0.0430378 -0.0136897,-0.0911835 -0.0284389,-0.139836 -0.0159366,-0.0525693 -0.0320508,-0.105724 -0.0293301,-0.154366l4.29372e-007 -7.58558e-006c0.000119222,-0.00213183 0.000343355,-0.00508362 0.00069959,-0.00860147 0.000360386,-0.00355835 0.000843716,-0.00760046 0.00146974,-0.011805 0.00249866,-0.0167816 0.00745118,-0.0375444 0.0166565,-0.0474618l-0.23141 0c-0.00567845,0 -0.0102845,0.00153214 -0.0139796,0.00484661 -0.00386507,0.00346704 -0.00689142,0.00893223 -0.00925197,0.0166626 -0.00252457,0.00826713 -0.00436099,0.0183705 -0.00530833,0.0295461 -0.000195221,0.00230315 -0.000347791,0.00452215 -0.000455993,0.00664754 -0.00011822,0.0023209 -0.00019837,0.00460301 -0.000238588,0.00683775l-4.29372e-007 2.37586e-005c-0.000799205,0.0446506 0.0131212,0.0948658 0.0268701,0.144463 0.00946236,0.0341342 0.0188437,0.0679776 0.0233697,0.0997224z"/>
  <path fill="#F1F2E5" d="M0.0341556 0.432916l0 -1.17362e-005 0.249098 0c-0.00332821,-0.00375271 -0.00625638,-0.00913518 -0.00864584,-0.0157674 -0.00451084,-0.0125193 -0.0073009,-0.0297582 -0.00730104,-0.0487486l-1.1593e-005 0 0 -1.43124e-006 0 -3.00561e-006 1.1593e-005 0c2.86248e-007,-0.0143284 0.00210965,-0.0273467 0.00551958,-0.0368112 0.00157465,-0.00437072 0.00346689,-0.00803985 0.00560989,-0.010824l-0.248314 0c-0.0116593,0 -0.0189044,0.0122702 -0.0221537,0.028575 -0.00143553,0.007203 -0.00208203,0.0151278 -0.00198084,0.0231447 0.000101475,0.00805975 0.000951489,0.0162316 0.00250796,0.0238818 0.00410494,0.0201772 0.01297,0.0365659 0.0256601,0.0365659z"/>
  <path fill="#1F1A17" fill-rule="nonzero" d="M0.291976 0.438904l-0.257821 0 0 -1.17362e-005c-0.0160932,0 -0.0268773,-0.0185314 -0.0315191,-0.0413467 -0.00162904,-0.00800736 -0.00251884,-0.0165642 -0.00262518,-0.0250066 -0.000106914,-0.00848525 0.000570063,-0.016837 0.00207458,-0.0243869 0.00379837,-0.0190594 0.0128913,-0.0334027 0.0280361,-0.0334027l0.0304489 0c-0.00451857,-0.0311309 -0.0137651,-0.0644877 -0.0230908,-0.0981287 -0.0138616,-0.0500035 -0.0278959,-0.10063 -0.0270812,-0.146151l4.29372e-007 -2.37586e-005c4.42253e-005,-0.00245358 0.000124232,-0.00480439 0.000238588,-0.00704872 0.000124232,-0.00243998 0.000276802,-0.00471923 0.000455993,-0.00683503 0.000978253,-0.011541 0.00290427,-0.0220714 0.00556609,-0.0307881 0.00268887,-0.00880542 0.00628186,-0.0151614 0.0109863,-0.0193811 0.00487438,-0.0043723 0.010789,-0.00639335 0.0179636,-0.00639335l0.24281 0 0 0.000205526c0.000165165,-5.72496e-006 0.000329615,-1.3883e-005 0.000496497,-1.3883e-005l0 -1.1593e-005c0.0134856,0 0.0220025,0.0189907 0.0255495,0.042213 0.00121412,0.00794882 0.00187077,0.0164707 0.00196166,0.0249022 9.05975e-005,0.00840539 -0.000387866,0.0166658 -0.00144369,0.0241193 -0.00263706,0.0186159 -0.00908823,0.0325904 -0.0196136,0.0329125l0 0.000189496 -0.0281631 0c0.00517651,0.0331833 0.0156432,0.0677123 0.0260346,0.10199 0.0148881,0.0491102 0.02962,0.0977091 0.0286971,0.141674 4.57997e-006,6.82702e-005 7.1562e-006,0.000137256 7.1562e-006,0.000206814l0 2.86248e-006 -1.07343e-005 0 -5.72496e-007 3.67829e-005 -4.29372e-007 1.88924e-005 -1.43124e-007 0c-5.72496e-006,0.0189677 -0.0027945,0.0361843 -0.00730062,0.0486911 -0.00484275,0.0134412 -0.0118966,0.0217551 -0.0200129,0.0217556l0 1.17362e-005 -4.29372e-007 0 -7.1562e-007 0 0 -1.17362e-005c-0.000894668,0 -0.00177631,-0.000101475 -0.00264364,-0.000299416l0 0.000311152zm-0.257821 -0.00598774l0 -1.17362e-005 0.249098 0c-0.00332821,-0.00375271 -0.00625638,-0.00913518 -0.00864584,-0.0157674 -0.00451084,-0.0125193 -0.0073009,-0.0297582 -0.00730104,-0.0487486l-1.1593e-005 0 0 -1.43124e-006 0 -3.00561e-006 1.1593e-005 0c2.86248e-007,-0.0143284 0.00210965,-0.0273467 0.00551958,-0.0368112 0.00157465,-0.00437072 0.00346689,-0.00803985 0.00560989,-0.010824l-0.248314 0c-0.0116593,0 -0.0189044,0.0122702 -0.0221537,0.028575 -0.00143553,0.007203 -0.00208203,0.0151278 -0.00198084,0.0231447 0.000101475,0.00805975 0.000951489,0.0162316 0.00250796,0.0238818 0.00410494,0.0201772 0.01297,0.0365659 0.0256601,0.0365659zm0.0324594 -0.118167l0.221924 0 5.72496e-007 0 0.000377704 0 0 1.98942e-005c0.0103207,0.000347076 0.0168272,0.0148986 0.0195412,0.0323062 0.000911557,0.00584676 0.00142122,0.0120317 0.00152184,0.0180721 0.000101189,0.0060646 -0.000207387,0.0119849 -0.000932167,0.0172759 -0.00179735,0.0131175 -0.00638748,0.0227355 -0.0140086,0.0227537l-0.0177408 3.62104e-005c0.000861464,0.00356794 0.00184473,0.00688627 0.00293361,0.00990834 0.0039611,0.0109938 0.00907006,0.017794 0.014388,0.0177945l0 -1.17362e-005 7.1562e-007 0 4.29372e-007 0 0 1.17362e-005c0.00531792,-2.86248e-007 0.0104272,-0.00680068 0.0143884,-0.017795 0.00429329,-0.0119161 0.00694896,-0.0284347 0.0069491,-0.0467313l-1.17362e-005 0 0 -2.86248e-006c0,-0.00010491 5.58184e-006,-0.000208532 1.60299e-005,-0.000310579 0.00090483,-0.0430378 -0.0136897,-0.0911835 -0.0284389,-0.139836 -0.0159366,-0.0525693 -0.0320508,-0.105724 -0.0293301,-0.154366l4.29372e-007 -7.58558e-006c0.000119222,-0.00213183 0.000343355,-0.00508362 0.00069959,-0.00860147 0.000360386,-0.00355835 0.000843716,-0.00760046 0.00146974,-0.011805 0.00249866,-0.0167816 0.00745118,-0.0375444 0.0166565,-0.0474618l-0.23141 0c-0.00567845,0 -0.0102845,0.00153214 -0.0139796,0.00484661 -0.00386507,0.00346704 -0.00689142,0.00893223 -0.00925197,0.0166626 -0.00252457,0.00826713 -0.00436099,0.0183705 -0.00530833,0.0295461 -0.000195221,0.00230315 -0.000347791,0.00452215 -0.000455993,0.00664754 -0.00011822,0.0023209 -0.00019837,0.00460301 -0.000238588,0.00683775l-4.29372e-007 2.37586e-005c-0.000799205,0.0446506 0.0131212,0.0948658 0.0268701,0.144463 0.00946236,0.0341342 0.0188437,0.0679776 0.0233697,0.0997224zm0.22228 0.00599947l-0.000355377 0 -5.72496e-007 0 -0.000300417 0c-0.00353516,0.00026206 -0.00700578,0.0051184 -0.00978768,0.0128395 -0.00319267,0.00886153 -0.00516764,0.0211603 -0.00516792,0.0347957l1.17362e-005 0 0 3.00561e-006 0 1.43124e-006 -1.17362e-005 0c1.43124e-007,0.0111588 0.000988129,0.0216561 0.00273267,0.0308515l0.0190239 -3.89297e-005c0.00396854,-9.44619e-006 0.00669062,-0.00743902 0.00807935,-0.0175743 0.00068814,-0.00502308 0.000981115,-0.0106383 0.000885222,-0.0163856 -9.61794e-005,-0.00577176 -0.000582229,-0.0116762 -0.00145156,-0.0172517 -0.00227667,-0.0146032 -0.00693307,-0.0268239 -0.0136576,-0.0272407zm-0.0247247 -0.246546c-0.000803498,0.0143658 8.97388e-005,0.0291886 0.00215946,0.0443136l0.0182711 0c-0.00449825,-0.0056919 -0.00760461,-0.0150116 -0.00931909,-0.0254706 -0.000974389,-0.00594423 -0.00152585,-0.0122976 -0.00164535,-0.0185393 -0.000119652,-0.0062445 0.000194506,-0.0123585 0.000951202,-0.0178204 0.000969236,-0.00699648 0.00272837,-0.0130246 0.00531377,-0.0171769l-0.0109043 0c-0.0011085,0.00501879 -0.0020003,0.0100931 -0.00270376,0.0148185 -0.000637761,0.00428284 -0.00110907,0.00819385 -0.00144641,0.0115239 -0.000341351,0.003371 -0.00055847,0.00624393 -0.000676118,0.00834356l-4.29372e-007 7.58558e-006zm0.024747 -0.0680356c-0.00874316,0 -0.014632,0.012699 -0.0184756,0.0273426l0.0184756 0 0 1.18793e-005c0.00163949,-2.86248e-007 0.00297526,0.00132218 0.002988,0.00296439 1.30243e-005,0.00165022 -0.00131431,0.00299874 -0.00296453,0.00301162 -7.87182e-006,0 -1.56005e-005,7.1562e-007 -2.34723e-005,8.58744e-007l0 1.07343e-005 -0.000209534 0c-0.00403123,0.000324748 -0.00678523,0.00784978 -0.00819099,0.0179971 -0.000718912,0.00518982 -0.00101776,0.0109899 -0.000904258,0.0169065 0.000113354,0.00591961 0.000641196,0.0119752 0.00157508,0.0176721 0.00236269,0.0144142 0.00707906,0.0262495 0.0138112,0.0262495 0.00710225,0 0.0118085,-0.0118696 0.0140568,-0.0277409 0.0010209,-0.00720744 0.00148391,-0.0151703 0.00139675,-0.0232522 -8.68763e-005,-0.00805617 -0.000727786,-0.0162869 -0.00191471,-0.0240584 -0.00311781,-0.0204118 -0.00976979,-0.0371041 -0.0196203,-0.0371041l0 -1.17362e-005z"/>
 </g>
</svg>

<?xml version="1.0" encoding="UTF-8" standalone="no"?>
<svg
   xmlns:dc="http://purl.org/dc/elements/1.1/"
   xmlns:cc="http://creativecommons.org/ns#"
   xmlns:rdf="http://www.w3.org/1999/02/22-rdf-syntax-ns#"
   xmlns:svg="http://www.w3.org/2000/svg"
   xmlns="http://www.w3.org/2000/svg"
   xmlns:sodipodi="http://sodipodi.sourceforge.net/DTD/sodipodi-0.dtd"
   xmlns:inkscape="http://www.inkscape.org/namespaces/inkscape"
   xml:space="preserve"
   width="187.80128"
   height="256"
   viewBox="0 0 0.07111701 0.096942869"
   version="1.1"
   id="svg16"
   sodipodi:docname="blank_parchment_03.svg"
   inkscape:version="0.92.4 (5da689c313, 2019-01-14)"
   style="clip-rule:evenodd;fill-rule:evenodd;image-rendering:optimizeQuality;shape-rendering:geometricPrecision;text-rendering:geometricPrecision"><title
   id="title829">Blank Parchment</title><metadata
   id="metadata22"><rdf:RDF><cc:Work
       rdf:about=""><dc:format>image/svg+xml</dc:format><dc:type
         rdf:resource="http://purl.org/dc/dcmitype/StillImage" /><dc:title>Blank Parchment</dc:title><cc:license
         rdf:resource="http://creativecommons.org/publicdomain/zero/1.0/" /><dc:source>https://openclipart.org/detail/304393</dc:source><dc:publisher><cc:Agent><dc:title>OpenClipart Library</dc:title></cc:Agent></dc:publisher></cc:Work><cc:License
       rdf:about="http://creativecommons.org/publicdomain/zero/1.0/"><cc:permits
         rdf:resource="http://creativecommons.org/ns#Reproduction" /><cc:permits
         rdf:resource="http://creativecommons.org/ns#Distribution" /><cc:permits
         rdf:resource="http://creativecommons.org/ns#DerivativeWorks" /></cc:License></rdf:RDF></metadata><defs
   id="defs20" /><sodipodi:namedview
   pagecolor="#ffffff"
   bordercolor="#666666"
   borderopacity="1"
   objecttolerance="10"
   gridtolerance="10"
   guidetolerance="10"
   inkscape:pageopacity="0"
   inkscape:pageshadow="2"
   inkscape:window-width="1920"
   inkscape:window-height="1025"
   id="namedview18"
   showgrid="false"
   inkscape:zoom="0.20361903"
   inkscape:cx="-228.04884"
   inkscape:cy="579.51361"
   inkscape:window-x="-8"
   inkscape:window-y="-8"
   inkscape:window-maximized="1"
   inkscape:current-layer="svg16"
   units="px"
   fit-margin-top="0"
   fit-margin-left="0"
   fit-margin-right="0"
   fit-margin-bottom="0" />
 <g
   id="Layer_x0020_1"
   transform="scale(0.22087468)">
  <metadata
   id="CorelCorpID_0Corel-Layer" />
  <path
   d="m 0.288917,0.00616779 c -0.008743,0 -0.014632,0.012699 -0.0184756,0.0273426 H 0.288917 v 1.188e-5 c 0.001639,-2.9e-7 0.002975,0.0013222 0.002988,0.0029644 1.302e-5,0.0016502 -0.001314,0.0029987 -0.002965,0.0030116 -7.87e-6,0 -1.56e-5,7.1e-7 -2.347e-5,8.6e-7 v 1.073e-5 h -2.0954e-4 c -0.004031,3.2475e-4 -0.006785,0.0078498 -0.008191,0.0179971 -7.1891e-4,0.0051898 -0.001018,0.0109899 -9.0425e-4,0.0169065 1.1335e-4,0.0059196 6.4119e-4,0.0119752 0.001575,0.0176721 0.002363,0.0144142 0.007079,0.0262495 0.0138112,0.0262495 0.007102,0 0.0118085,-0.0118696 0.0140568,-0.0277409 0.001021,-0.0072074 0.001484,-0.0151703 0.001397,-0.0232522 -8.688e-5,-0.0080562 -7.2779e-4,-0.0162869 -0.001915,-0.0240584 -0.003118,-0.0204118 -0.00977,-0.0371041 -0.0196203,-0.0371041 z"
   id="path3"
   inkscape:connector-curvature="0"
   style="fill:#d1d2be" />
  <path
   d="M 0.26417,0.0742034 C 0.2633665,0.0885692 0.26425974,0.103392 0.266329,0.118517 H 0.2846001 C 0.2801021,0.112825 0.2769951,0.1035054 0.2752811,0.0930464 0.27430671,0.0871022 0.2737551,0.0807488 0.2736361,0.0745071 0.27351645,0.0682626 0.27383061,0.0621486 0.2745873,0.0566867 0.27555654,0.0496902 0.2773153,0.0436621 0.2799013,0.0395098 H 0.268997 C 0.267888,0.0445286 0.266997,0.0496029 0.266293,0.0543283 0.26565524,0.0586111 0.265184,0.0625221 0.264847,0.0658522 0.26450565,0.0692232 0.26428853,0.0720961 0.26417088,0.0741958 Z"
   id="path5"
   inkscape:connector-curvature="0"
   style="fill:#d1d2be" />
  <path
   d="m 0.288895,0.320749 h -3.5538e-4 -5.7e-7 -3.0042e-4 c -0.003535,2.6206e-4 -0.007006,0.005118 -0.009788,0.0128395 -0.003193,0.008862 -0.005168,0.0211603 -0.005168,0.0347957 h 1.174e-5 v 3.01e-6 1.43e-6 h -1.174e-5 c 1.5e-7,0.0111588 9.8813e-4,0.0216561 0.002733,0.0308515 l 0.0190239,-3.893e-5 c 0.003969,-9.45e-6 0.006691,-0.007439 0.008079,-0.0175743 6.8814e-4,-0.005023 9.8112e-4,-0.0106383 8.8523e-4,-0.0163856 -9.618e-5,-0.005772 -5.8223e-4,-0.0116762 -0.001452,-0.0172517 -0.002277,-0.0146032 -0.006933,-0.0268239 -0.0136568,-0.0272406 z"
   id="path7"
   inkscape:connector-curvature="0"
   style="fill:#d1d2be" />
  <path
   d="m 0.0666149,0.314749 h 0.221924 5.7e-7 3.7771e-4 v 1.989e-5 c 0.0103207,3.4708e-4 0.0168272,0.0148986 0.0195412,0.0323062 9.1155e-4,0.005847 0.001421,0.0120317 0.001522,0.0180721 1.0119e-4,0.006065 -2.0739e-4,0.0119849 -9.3217e-4,0.0172759 -0.001797,0.0131175 -0.006387,0.0227355 -0.0140086,0.0227537 l -0.0177408,3.621e-5 c 8.6146e-4,0.003568 0.001845,0.006886 0.002934,0.009908 0.003961,0.0109938 0.00907,0.017794 0.014388,0.0177945 v -1.173e-5 h 7.2e-7 4.2e-7 v 1.173e-5 c 0.005318,-2.8e-7 0.0104272,-0.006801 0.0143884,-0.017795 0.004293,-0.0119161 0.006949,-0.0284347 0.006949,-0.0467313 h -1.173e-5 v -2.86e-6 c 0,-1.0491e-4 5.58e-6,-2.0853e-4 1.603e-5,-3.1058e-4 C 0.31686803,0.3250383 0.3022735,0.2768926 0.2875243,0.2282401 0.2715877,0.1756708 0.2554735,0.1225161 0.2581942,0.0738741 l 4.3e-7,-7.58e-6 c 1.1922e-4,-0.0021318 3.4335e-4,-0.0050836 6.9959e-4,-0.0086015 3.6038e-4,-0.0035584 8.4371e-4,-0.0076005 0.00147,-0.011805 0.002499,-0.0167816 0.007451,-0.0375444 0.0166565,-0.0474618 h -0.23141 c -0.0056785,0 -0.0102845,0.00153214 -0.0139796,0.00484661 -0.0038651,0.003467 -0.0068914,0.0089322 -0.009252,0.0166626 -0.0025246,0.0082671 -0.004361,0.0183705 -0.0053083,0.0295461 -1.9522e-4,0.0023031 -3.4779e-4,0.0045221 -4.56e-4,0.0066475 -1.1822e-4,0.0023209 -1.9837e-4,0.004603 -2.3858e-4,0.0068378 l -4.3e-7,2.376e-5 c -7.9921e-4,0.0446506 0.0131212,0.0948658 0.0268701,0.144463 0.0094624,0.0341342 0.0188437,0.0679776 0.0233697,0.0997224 z"
   id="path9"
   inkscape:connector-curvature="0"
   style="fill:#f1f2e5" />
  <path
   d="m 0.0341556,0.432916 v -1.174e-5 h 0.249098 c -0.003328,-0.003753 -0.006256,-0.009135 -0.008646,-0.0157674 -0.004511,-0.0125193 -0.007301,-0.0297582 -0.007301,-0.0487486 h -1.159e-5 v -1.43e-6 -3e-6 h 1.159e-5 c 2.9e-7,-0.0143284 0.00211,-0.0273467 0.00552,-0.0368112 0.001575,-0.004371 0.003467,-0.00804 0.00561,-0.010824 h -0.248314 c -0.0116593,0 -0.0189044,0.0122702 -0.0221537,0.028575 -0.00143553,0.007203 -0.00208203,0.0151278 -0.00198084,0.0231447 1.0148e-4,0.00806 9.5149e-4,0.0162316 0.00250796,0.0238818 0.00410494,0.0201772 0.01297,0.0365659 0.02565958,0.0365659 z"
   id="path11"
   inkscape:connector-curvature="0"
   style="fill:#f1f2e5" />
  <path
   d="M 0.291976,0.438904 H 0.034155 v -1.174e-5 c -0.0160932,0 -0.0268773,-0.0185314 -0.0315191,-0.0413467 C 0.00100686,0.3895382 1.1706e-4,0.38098136 1.072e-5,0.37253896 -9.6194e-5,0.36405371 5.80783e-4,0.35570196 0.0020853,0.34815206 0.00588367,0.32909266 0.0149766,0.31474936 0.0301214,0.31474936 H 0.0605703 C 0.05605173,0.28361846 0.0468052,0.25026166 0.0374795,0.21662066 0.0236179,0.16661716 0.0095836,0.11599066 0.0103983,0.07046966 l 4.3e-7,-2.375e-5 c 4.422e-5,-0.0024536 1.2423e-4,-0.0048044 2.3859e-4,-0.0070487 1.2423e-4,-0.00244 2.768e-4,-0.0047192 4.5599e-4,-0.006835 9.7825e-4,-0.011541 0.0029043,-0.0220714 0.0055661,-0.0307881 0.0026889,-0.0088054 0.0062819,-0.0151614 0.0109863,-0.0193811 C 0.03252008,0.00202066 0.0384347,-3.948e-7 0.0456093,-3.948e-7 h 0.24281 v 2.05526e-4 c 1.6517e-4,-5.72496e-6 3.2962e-4,-1.3883e-5 4.965e-4,-1.3883e-5 v -1.1593e-5 c 0.0134856,0 0.0220025,0.0189907048 0.0255495,0.0422130048 0.001214,0.0079488 0.001871,0.0164707 0.001962,0.0249022 9.059e-5,0.0084054 -3.8787e-4,0.0166658 -0.001444,0.0241193 -0.002637,0.0186159 -0.009088,0.0325904 -0.0196136,0.0329125 v 1.8949e-4 H 0.2672066 c 0.005177,0.0331833 0.0156432,0.0677123 0.0260346,0.10199 0.0148881,0.0491102 0.02962,0.0977091 0.0286971,0.141674 4.58e-6,6.827e-5 7.15e-6,1.3726e-4 7.15e-6,2.0682e-4 v 2.86e-6 h -1.073e-5 l -5.7e-7,3.678e-5 -4.3e-7,1.889e-5 h -1.5e-7 c -5.72e-6,0.0189677 -0.002795,0.0361843 -0.007301,0.0486911 -0.004843,0.0134412 -0.0118966,0.0217551 -0.0200129,0.0217556 v 1.174e-5 h -4.3e-7 -7.1e-7 v -1.174e-5 c -8.9467e-4,0 -0.001776,-1.0147e-4 -0.002644,-2.9941e-4 z M 0.034155,0.432916 v -1.174e-5 H 0.283253 C 0.279925,0.42915126 0.276997,0.42376926 0.274607,0.41713686 0.270096,0.40461756 0.267306,0.38737866 0.267306,0.36838826 h -1.159e-5 v -1.43e-6 -3e-6 h 1.159e-5 c 2.9e-7,-0.0143284 0.00211,-0.0273467 0.00552,-0.0368112 0.001575,-0.004371 0.003467,-0.00804 0.00561,-0.010824 H 0.030122 c -0.0116593,0 -0.0189044,0.0122702 -0.0221537,0.028575 -0.00143553,0.007203 -0.00208203,0.0151278 -0.00198084,0.0231447 1.0148e-4,0.00806 9.5149e-4,0.0162316 0.00250796,0.0238818 0.00410494,0.0201772 0.01297,0.0365659 0.02565958,0.0365659 z M 0.0666144,0.314749 h 0.221924 5.7e-7 3.7771e-4 v 1.989e-5 c 0.0103207,3.4708e-4 0.0168272,0.0148986 0.0195412,0.0323062 9.1155e-4,0.005847 0.001421,0.0120317 0.001522,0.0180721 1.0119e-4,0.006065 -2.0739e-4,0.0119849 -9.3217e-4,0.0172759 -0.001797,0.0131175 -0.006387,0.0227355 -0.0140086,0.0227537 l -0.0177408,3.621e-5 c 8.6146e-4,0.003568 0.001845,0.006886 0.002934,0.009908 0.003961,0.0109938 0.00907,0.017794 0.014388,0.0177945 v -1.173e-5 h 7.2e-7 4.2e-7 v 1.173e-5 c 0.005318,-2.8e-7 0.0104272,-0.006801 0.0143884,-0.017795 0.004293,-0.0119161 0.006949,-0.0284347 0.006949,-0.0467313 h -1.173e-5 v -2.86e-6 c 0,-1.0491e-4 5.58e-6,-2.0853e-4 1.603e-5,-3.1058e-4 C 0.31686753,0.32503856 0.302273,0.27689286 0.2875238,0.22824036 0.2715872,0.17567106 0.255473,0.12251636 0.2581937,0.07387436 l 4.3e-7,-7.58e-6 c 1.1922e-4,-0.0021318 3.4335e-4,-0.0050836 6.9959e-4,-0.0086015 3.6038e-4,-0.0035584 8.4371e-4,-0.0076005 0.00147,-0.011805 0.002499,-0.0167816 0.007451,-0.0375444 0.0166565,-0.0474618 h -0.23141 c -0.0056784,0 -0.0102845,0.00153214 -0.0139796,0.00484661 -0.0038651,0.003467 -0.0068914,0.0089322 -0.009252,0.0166626 -0.0025246,0.0082671 -0.004361,0.0183705 -0.0053083,0.0295461 -1.9522e-4,0.0023032 -3.4779e-4,0.0045222 -4.56e-4,0.0066475 -1.1822e-4,0.0023209 -1.9837e-4,0.004603 -2.3858e-4,0.0068378 l -4.3e-7,2.376e-5 c -7.9921e-4,0.0446506 0.0131212,0.0948658 0.0268701,0.144463 0.0094624,0.0341342 0.0188437,0.0679776 0.0233697,0.0997224 z m 0.22228,0.005999 h -3.5538e-4 -5.7e-7 -3.0042e-4 c -0.003535,2.6206e-4 -0.007006,0.005118 -0.009788,0.0128395 -0.003193,0.008862 -0.005168,0.0211603 -0.005168,0.0347957 h 1.174e-5 v 3.01e-6 1.43e-6 h -1.174e-5 c 1.5e-7,0.0111588 9.8813e-4,0.0216561 0.002733,0.0308515 l 0.0190239,-3.893e-5 c 0.003969,-9.45e-6 0.006691,-0.007439 0.008079,-0.0175743 6.8814e-4,-0.005023 9.8112e-4,-0.0106383 8.8523e-4,-0.0163856 -9.618e-5,-0.005772 -5.8223e-4,-0.0116762 -0.001452,-0.0172517 -0.002277,-0.0146032 -0.006933,-0.0268239 -0.0136568,-0.0272406 z M 0.2641697,0.074202 c -8.035e-4,0.0143658 8.974e-5,0.0291886 0.002159,0.0443136 H 0.2845998 C 0.2801018,0.1128236 0.2769948,0.103504 0.2752808,0.093045 0.27430641,0.0871008 0.2737548,0.0807474 0.2736358,0.0745057 0.27351615,0.0682612 0.27383031,0.0621472 0.274587,0.0566853 0.27555624,0.0496888 0.277315,0.0436607 0.279901,0.0395084 H 0.2689967 c -0.001108,0.0050188 -0.002,0.0100931 -0.002704,0.0148185 -6.3776e-4,0.0042828 -0.001109,0.0081939 -0.001446,0.0115239 -3.4135e-4,0.003371 -5.5847e-4,0.0062439 -6.7612e-4,0.0083436 z m 0.024747,-0.0680356 c -0.008743,0 -0.014632,0.012699 -0.0184756,0.0273426 h 0.0184756 v 1.188e-5 c 0.001639,-2.9e-7 0.002975,0.0013222 0.002988,0.0029644 1.302e-5,0.0016502 -0.001314,0.0029987 -0.002965,0.0030116 -7.87e-6,0 -1.56e-5,7.1e-7 -2.347e-5,8.6e-7 v 1.073e-5 h -2.0954e-4 c -0.004031,3.2475e-4 -0.006785,0.0078498 -0.008191,0.0179971 -7.1891e-4,0.0051898 -0.001018,0.0109899 -9.0425e-4,0.0169065 1.1335e-4,0.0059196 6.4119e-4,0.0119752 0.001575,0.0176721 0.002363,0.0144142 0.007079,0.0262495 0.0138112,0.0262495 0.007102,0 0.0118085,-0.0118696 0.0140568,-0.0277409 0.001021,-0.0072074 0.001484,-0.0151703 0.001397,-0.0232522 -8.688e-5,-0.0080562 -7.2779e-4,-0.0162869 -0.001915,-0.0240584 -0.003118,-0.0204118 -0.00977,-0.0371041 -0.0196203,-0.0371041 z"
   id="path13"
   inkscape:connector-curvature="0"
   style="fill:#1f1a17;fill-rule:nonzero" />
 </g>
</svg>
